images/icons/client2.svg

<svg width="106" height="60" viewBox="0 0 106 60" fill="none" xmlns="http://www.w3.org/2000/svg">
<path fill-rule="evenodd" clip-rule="evenodd" d="M50.1135 5.93452H49.9769C49.7669 5.92181 49.557 5.91672 49.347 5.91163H49.347H49.3268H48.8917C48.4945 5.91163 48.0897 5.92181 47.6875 5.94215C47.6572 5.93994 47.6267 5.93994 47.5964 5.94215C43.9521 6.14863 40.3816 7.05951 37.0804 8.62492L36.6478 8.83344V30.9746L37.6597 30.6313C38.5476 30.3261 39.4937 30.0515 40.4727 29.7972C43.1192 29.1178 45.8366 28.7567 48.5678 28.7216V31.6306C48.2061 31.6332 47.8545 31.6434 47.5028 31.6612H47.4193C45.3174 31.7765 43.2315 32.0967 41.1912 32.6173C38.607 33.2643 36.1142 34.2357 33.7715 35.5086V7.11189C36.2046 5.69275 38.8252 4.62687 41.5554 3.94596C43.9526 3.32705 46.4168 3.00931 48.8917 3H49.3192C49.8302 3.01271 50.3285 3.0356 50.7965 3.0712C52.0296 3.15778 53.2527 3.35263 54.452 3.65353V6.51685C53.2873 6.24551 52.103 6.06695 50.9104 5.98284C50.8862 5.98079 50.862 5.97872 50.8377 5.97666C50.591 5.95561 50.3439 5.93452 50.1135 5.93452ZM55.1527 8.86138C55.7876 8.9097 56.4453 8.93259 57.1107 8.93259C59.7124 8.92307 62.303 8.59083 64.8238 7.94339C67.4067 7.29396 69.8985 6.32178 72.2409 5.04956V32.9402C69.8065 34.3585 67.1852 35.4243 64.4545 36.1061C62.057 36.7227 59.5929 37.0395 57.1182 37.0496C55.2432 37.0647 53.3736 36.8443 51.5529 36.3935V8.32229C51.9829 8.42146 52.4256 8.51301 52.8759 8.58929C53.6146 8.7139 54.3937 8.80544 55.1527 8.86138ZM69.3469 9.07753L68.335 9.41828C67.4041 9.73106 66.4656 10.0108 65.522 10.26C62.7748 10.966 59.9513 11.3281 57.1157 11.3382C56.4555 11.3382 55.8483 11.3204 55.2614 11.2822L54.4545 11.2288V31.3178V34.0057L55.1476 34.0667C55.7901 34.1227 56.4529 34.1506 57.1208 34.1506C59.3543 34.1412 61.578 33.8533 63.7411 33.2937C65.5222 32.8469 67.2551 32.2243 68.9144 31.4348L69.3469 31.2263V9.07753Z" fill="#AFB1B8"/>
<path d="M35.7373 45.2124C35.5918 45.0615 35.4164 44.943 35.2225 44.8646C35.0286 44.7862 34.8204 44.7496 34.6115 44.7572C34.3889 44.7542 34.1679 44.7957 33.9614 44.8793C33.772 44.9547 33.5999 45.068 33.4554 45.2124C33.3126 45.3572 33.2014 45.5304 33.1291 45.721C33.0498 45.9207 33.0103 46.1341 33.0127 46.3491V50.1431C33.0037 50.4104 33.0547 50.6764 33.162 50.9212C33.2516 51.1156 33.3808 51.2889 33.5415 51.4298C33.6931 51.5575 33.8711 51.6495 34.0626 51.6994C34.2471 51.7512 34.4377 51.7777 34.6292 51.7782C34.8405 51.7803 35.0497 51.7351 35.2414 51.646C35.4311 51.563 35.6029 51.4438 35.7474 51.295C35.8883 51.1476 36.0006 50.9752 36.0788 50.7864C36.1599 50.5951 36.2012 50.3892 36.2002 50.1812V49.7566H35.2085V50.0948C35.2115 50.2103 35.1917 50.3252 35.1504 50.433C35.1181 50.5137 35.0689 50.5866 35.0062 50.6466C34.9447 50.6962 34.8743 50.7334 34.7987 50.7559C34.7318 50.7782 34.6618 50.7902 34.5913 50.7915C34.5028 50.8018 34.4131 50.7885 34.3313 50.7527C34.2496 50.717 34.1787 50.6602 34.1258 50.5881C34.0323 50.4356 33.9865 50.2585 33.9943 50.0795V46.5423C33.9881 46.3462 34.0298 46.1515 34.1157 45.9753C34.1672 45.8952 34.24 45.8313 34.3259 45.7908C34.4118 45.7503 34.5072 45.7349 34.6014 45.7464C34.6869 45.7434 34.7718 45.7612 34.8489 45.7984C34.926 45.8356 34.993 45.8911 35.0441 45.96C35.1551 46.1057 35.2131 46.2852 35.2085 46.4686V46.7966H36.1901V46.4101C36.1921 46.1831 36.1509 45.9578 36.0686 45.7464C35.9954 45.5476 35.8826 45.3659 35.7373 45.2124Z" fill="#AFB1B8"/>
<path d="M41.6289 45.1691C41.3127 44.9021 40.9136 44.7546 40.5007 44.7521C40.2987 44.7529 40.0984 44.7891 39.9087 44.8589C39.7161 44.9279 39.5384 45.0332 39.3851 45.1691C39.2208 45.3168 39.0897 45.498 39.0005 45.7006C38.9006 45.9323 38.8515 46.183 38.8563 46.4355V50.0744C38.8495 50.3304 38.8987 50.5847 39.0005 50.8195C39.0903 51.0151 39.2215 51.1887 39.3851 51.328C39.5367 51.4688 39.7147 51.5777 39.9087 51.6485C40.0984 51.7183 40.2987 51.7544 40.5007 51.7553C40.7027 51.7549 40.9031 51.7187 41.0926 51.6485C41.29 51.5767 41.4719 51.468 41.6289 51.328C41.7871 51.1861 41.9145 51.013 42.0033 50.8195C42.1051 50.5847 42.1544 50.3304 42.1475 50.0744V46.4355C42.1524 46.183 42.1032 45.9323 42.0033 45.7006C41.9151 45.5001 41.7878 45.3194 41.6289 45.1691ZM41.166 50.0744C41.1743 50.1714 41.1609 50.269 41.1268 50.3601C41.0926 50.4512 41.0386 50.5334 40.9687 50.6008C40.8377 50.7106 40.6725 50.7708 40.5019 50.7708C40.3313 50.7708 40.1662 50.7106 40.0352 50.6008C39.9652 50.5334 39.9112 50.4512 39.8771 50.3601C39.8429 50.269 39.8295 50.1714 39.8379 50.0744V46.4355C39.8295 46.3385 39.8429 46.2409 39.8771 46.1498C39.9112 46.0587 39.9652 45.9764 40.0352 45.9091C40.1662 45.7993 40.3313 45.7391 40.5019 45.7391C40.6725 45.7391 40.8377 45.7993 40.9687 45.9091C41.0386 45.9764 41.0926 46.0587 41.1268 46.1498C41.1609 46.2409 41.1743 46.3385 41.166 46.4355V50.0744Z" fill="#AFB1B8"/>
<path d="M49.3673 51.6994V44.8107H48.4136L47.1614 48.4572H47.1437L45.8813 44.8107H44.9377V51.6994H45.9218V47.5087H45.9395L46.9033 50.4712H47.3941L48.3655 47.5087H48.3832V51.6994H49.3673Z" fill="#AFB1B8"/>
<path d="M54.9582 45.2937C54.8067 45.1237 54.6154 44.9943 54.4016 44.9173C54.1713 44.8424 53.9303 44.8063 53.6883 44.8105H52.2261V51.6993H53.2076V49.0089H53.7136C54.0198 49.0228 54.3245 48.958 54.599 48.8207C54.8221 48.6968 55.0082 48.515 55.1378 48.2943C55.2513 48.1111 55.3278 47.9071 55.3629 47.6942C55.4016 47.435 55.4193 47.173 55.4161 46.911C55.4256 46.5802 55.3933 46.2495 55.3199 45.9269C55.2545 45.6885 55.13 45.4706 54.9582 45.2937ZM54.4522 47.3941C54.448 47.5188 54.4169 47.6412 54.3612 47.7527C54.3051 47.8586 54.2163 47.9434 54.1082 47.9942C53.9628 48.0593 53.8042 48.0889 53.6453 48.0807H53.1975V45.7387H53.7034C53.8558 45.7312 54.0077 45.7609 54.1461 45.8251C54.2476 45.8834 54.3282 45.9724 54.3763 46.0794C54.43 46.2004 54.4592 46.331 54.4624 46.4634C54.4624 46.6084 54.4624 46.7609 54.4624 46.9211C54.4624 47.0813 54.4725 47.2466 54.4624 47.3941H54.4522Z" fill="#AFB1B8"/>
<path d="M59.6077 44.8107H58.8032L57.2854 51.6994H58.2669L58.5553 50.2194H59.8935L60.1819 51.6994H61.1635L59.6077 44.8107ZM58.702 49.2811L59.1852 46.784H59.2029L59.6836 49.2811H58.702Z" fill="#AFB1B8"/>
<path d="M65.9497 48.9607H65.932L64.4496 44.8107H63.506V51.6994H64.4875V47.557H64.5078L66.0079 51.6994H66.9312V44.8107H65.9497V48.9607Z" fill="#AFB1B8"/>
<path d="M71.9476 44.8107L71.1583 47.5494H71.1381L70.3488 44.8107H69.3091L70.6574 48.7878V51.6994H71.639V48.7878L72.9873 44.8107H71.9476Z" fill="#AFB1B8"/>
<path d="M33 53.6445H33.4731V54.9719H33.7943V53.6445H34.2649V53.3724H33V53.6445Z" fill="#AFB1B8"/>
<path d="M36.9767 53.3724L36.3569 54.9719H36.6984L36.83 54.6083H37.4675L37.6041 54.9719H37.9532L37.3182 53.3724H36.9767ZM36.9261 54.3387L37.1437 53.7462L37.3612 54.3387H36.9261Z" fill="#AFB1B8"/>
<path d="M40.9079 54.3821H41.2773V54.5881C41.1694 54.6746 41.0358 54.722 40.8978 54.7229C40.8333 54.7265 40.7689 54.7145 40.7099 54.688C40.6509 54.6614 40.5991 54.6211 40.5588 54.5703C40.474 54.4485 40.4322 54.3017 40.4399 54.1533C40.4399 53.7973 40.5942 53.6193 40.9003 53.6193C40.9809 53.6112 41.0617 53.6325 41.128 53.6791C41.1944 53.7257 41.2419 53.7947 41.2621 53.8735L41.5783 53.8125C41.51 53.4997 41.2849 53.3421 40.9003 53.3421C40.6947 53.3366 40.4947 53.4103 40.3413 53.5481C40.2607 53.6276 40.1983 53.7239 40.1586 53.8302C40.1188 53.9365 40.1026 54.0502 40.1111 54.1634C40.1017 54.3823 40.1749 54.5966 40.316 54.7636C40.3943 54.8444 40.4892 54.9071 40.594 54.9475C40.6988 54.9879 40.8111 55.0049 40.9231 54.9975C41.1734 55.0045 41.4165 54.9133 41.6011 54.7432V54.1126H40.9079V54.3821Z" fill="#AFB1B8"/>
<path d="M44.9224 53.3724H44.5986V54.9719H45.7193V54.6998H44.9224V53.3724Z" fill="#AFB1B8"/>
<path d="M48.3175 53.3724H47.9937V54.9719H48.3175V53.3724Z" fill="#AFB1B8"/>
<path d="M51.6364 54.4405L50.9812 53.3724H50.6675V54.9719H50.9685V53.9268L51.6111 54.9719H51.9323V53.3724H51.6364V54.4405Z" fill="#AFB1B8"/>
<path d="M54.6368 54.2675H55.4337V53.9954H54.6368V53.6445H55.4944V53.3724H54.313V54.9719H55.5273V54.6998H54.6368V54.2675Z" fill="#AFB1B8"/>
<path d="M61.9122 54.0031H61.2823V53.3724H60.9611V54.9719H61.2823V54.2726H61.9122V54.9719H62.2335V53.3724H61.9122V54.0031Z" fill="#AFB1B8"/>
<path d="M64.9302 54.2675H65.7296V53.9954H64.9302V53.6445H65.7903V53.3724H64.6089V54.9719H65.8206V54.6998H64.9302V54.2675Z" fill="#AFB1B8"/>
<path d="M69.0233 54.2676C69.3015 54.2244 69.4432 54.0769 69.4432 53.8226C69.4513 53.7546 69.441 53.6856 69.4134 53.623C69.3858 53.5603 69.3419 53.5063 69.2863 53.4666C69.1415 53.3938 68.9799 53.3614 68.8183 53.3725H68.1404V54.972H68.4617V54.3032H68.5249C68.5934 54.299 68.6619 54.3112 68.7247 54.3388C68.7717 54.3678 68.8108 54.4079 68.8386 54.4558L69.1877 54.9644H69.5722L69.3774 54.6516C69.2913 54.4972 69.1699 54.3656 69.0233 54.2676ZM68.6994 54.0464H68.4617V53.6446H68.7146C68.8248 53.6357 68.9357 53.6486 69.041 53.6827C69.0644 53.7034 69.0828 53.7291 69.095 53.7579C69.1072 53.7867 69.1127 53.8179 69.1113 53.8492C69.1098 53.8804 69.1014 53.911 69.0866 53.9385C69.0718 53.966 69.051 53.9899 69.0258 54.0082C68.9202 54.0406 68.8096 54.0535 68.6994 54.0464Z" fill="#AFB1B8"/>
<path d="M72.1096 54.2675H72.9064V53.9954H72.1096V53.6445H72.9697V53.3724H71.7858V54.9719H73V54.6998H72.1096V54.2675Z" fill="#AFB1B8"/>
</svg>

<svg xmlns="http://www.w3.org/2000/svg" fill="none" viewBox="0 0 106 60">
  <path fill="#AFB1B8" fill-rule="evenodd" d="M50.114 5.935h-.137c-.21-.013-.42-.018-.63-.023h-.455c-.397 0-.802.01-1.204.03a.625.625 0 0 0-.091 0A28.275 28.275 0 0 0 37.08 8.625l-.432.208v22.142l1.012-.344c.888-.305 1.834-.58 2.813-.834a34.329 34.329 0 0 1 8.095-1.075v2.909c-.362.002-.713.012-1.065.03h-.084a32.36 32.36 0 0 0-6.228.956 31.635 31.635 0 0 0-7.42 2.892V7.112a29.727 29.727 0 0 1 7.785-3.166A29.793 29.793 0 0 1 48.892 3h.427c.511.013 1.01.036 1.478.071 1.233.087 2.456.282 3.655.583v2.863a22.623 22.623 0 0 0-3.541-.534l-.073-.006c-.247-.021-.494-.042-.724-.042Zm5.039 2.926c.635.049 1.293.072 1.958.072a31.467 31.467 0 0 0 7.713-.99A31.777 31.777 0 0 0 72.24 5.05v27.89a29.815 29.815 0 0 1-7.786 3.166 29.943 29.943 0 0 1-7.337.944 22.405 22.405 0 0 1-5.565-.656V8.322c.43.1.873.191 1.323.267.739.125 1.518.216 2.277.272Zm14.194.217-1.012.34c-.93.313-1.87.593-2.813.842a34.263 34.263 0 0 1-8.406 1.078c-.66 0-1.267-.018-1.854-.056l-.807-.053V34.006l.693.06c.642.057 1.305.085 1.973.085a26.884 26.884 0 0 0 6.62-.857 27.764 27.764 0 0 0 5.174-1.86l.432-.208V9.078Z" clip-rule="evenodd"/>
  <path fill="#AFB1B8" d="M35.737 45.212a1.491 1.491 0 0 0-1.126-.455 1.672 1.672 0 0 0-.65.122 1.464 1.464 0 0 0-.832.842c-.08.2-.119.413-.116.628v3.794c-.01.267.042.533.149.778.09.195.219.368.38.509.151.127.329.22.52.27.185.051.376.078.567.078.211.002.42-.043.612-.132a1.6 1.6 0 0 0 .96-1.465v-.424h-.993v.338a.88.88 0 0 1-.058.338.608.608 0 0 1-.144.214.697.697 0 0 1-.415.145.503.503 0 0 1-.465-.204.898.898 0 0 1-.132-.508v-3.538c-.006-.196.036-.39.122-.567a.507.507 0 0 1 .485-.229.527.527 0 0 1 .443.214.806.806 0 0 1 .164.509v.328h.982v-.387a1.79 1.79 0 0 0-.121-.664 1.56 1.56 0 0 0-.332-.534ZM41.629 45.17a1.765 1.765 0 0 0-1.128-.418c-.202 0-.403.037-.592.107A1.56 1.56 0 0 0 39 45.7c-.1.231-.15.482-.145.735v3.638c-.007.256.043.51.145.745.09.196.22.37.384.509.152.14.33.25.524.32.19.07.39.106.592.107a1.714 1.714 0 0 0 1.128-.427c.158-.142.285-.315.374-.509.102-.234.151-.489.145-.745v-3.639a1.77 1.77 0 0 0-.145-.734 1.641 1.641 0 0 0-.374-.532Zm-.463 4.904a.656.656 0 0 1-.197.527.727.727 0 0 1-.934 0 .65.65 0 0 1-.197-.527v-3.639a.653.653 0 0 1 .197-.526.726.726 0 0 1 .934 0 .652.652 0 0 1 .197.526v3.64ZM49.367 51.7v-6.89h-.953l-1.253 3.647h-.017l-1.263-3.646h-.943v6.888h.984v-4.19h.018l.963 2.962h.491l.971-2.962h.018v4.19h.984ZM54.958 45.294c-.151-.17-.343-.3-.556-.377a2.184 2.184 0 0 0-.714-.107h-1.462v6.89h.982v-2.691h.505c.307.014.611-.051.886-.188a1.43 1.43 0 0 0 .539-.527c.113-.183.19-.387.225-.6a4.9 4.9 0 0 0 .053-.783c.01-.33-.023-.662-.096-.984a1.466 1.466 0 0 0-.362-.633Zm-.506 2.1a.867.867 0 0 1-.091.359.552.552 0 0 1-.253.241 1.006 1.006 0 0 1-.463.087h-.448v-2.342h.506a.942.942 0 0 1 .443.086.556.556 0 0 1 .23.254c.054.121.083.252.086.384v.458c0 .16.01.326 0 .473h-.01ZM59.608 44.81h-.805l-1.518 6.89h.982l.288-1.48h1.339l.288 1.48h.981l-1.555-6.89Zm-.906 4.471.483-2.497h.018l.48 2.497h-.981ZM65.95 48.96h-.018l-1.482-4.15h-.944v6.89h.981v-4.143h.02l1.5 4.142h.924v-6.888h-.981v4.15ZM71.948 44.81l-.79 2.74h-.02l-.79-2.74H69.31l1.348 3.978v2.911h.982v-2.911l1.348-3.977h-1.04ZM33 53.645h.473v1.327h.321v-1.328h.47v-.272H33v.273ZM36.977 53.372l-.62 1.6h.341l.132-.364h.638l.136.364h.35l-.636-1.6h-.341Zm-.05.967.217-.593.217.593h-.435ZM40.908 54.382h.37v.206a.613.613 0 0 1-.38.135.404.404 0 0 1-.34-.153.67.67 0 0 1-.118-.417c0-.356.154-.534.46-.534a.337.337 0 0 1 .362.255l.316-.062c-.068-.312-.293-.47-.678-.47a.804.804 0 0 0-.559.206.78.78 0 0 0-.23.615.872.872 0 0 0 .205.6.776.776 0 0 0 .607.235.96.96 0 0 0 .678-.255v-.63h-.693v.27ZM44.923 53.372h-.324v1.6h1.12V54.7h-.796v-1.328ZM48.318 53.372h-.324v1.6h.324v-1.6ZM51.636 54.44l-.655-1.068h-.313v1.6h.3v-1.045l.643 1.045h.322v-1.6h-.297v1.069ZM54.637 54.267h.797v-.272h-.797v-.35h.857v-.273h-1.181v1.6h1.214V54.7h-.89v-.433ZM61.912 54.003h-.63v-.63h-.32v1.599h.32v-.7h.63v.7h.322v-1.6h-.322v.631ZM64.93 54.267h.8v-.272h-.8v-.35h.86v-.273H64.61v1.6h1.212V54.7h-.89v-.433ZM69.023 54.268c.279-.044.42-.191.42-.445a.383.383 0 0 0-.157-.356.904.904 0 0 0-.468-.094h-.678v1.599h.322v-.669h.063a.431.431 0 0 1 .2.036c.047.029.086.069.114.117l.349.508h.384l-.195-.312a1.115 1.115 0 0 0-.354-.384Zm-.324-.222h-.237v-.401h.253a.84.84 0 0 1 .326.038.21.21 0 0 1-.015.325.913.913 0 0 1-.327.038ZM72.11 54.267h.796v-.272h-.796v-.35h.86v-.273h-1.184v1.6H73V54.7h-.89v-.433Z"/>
</svg>
